images_elementary_svg/chart2/res/areaspiled3d_52x60.svg

<svg height="52" viewBox="0 0 60 52" width="60" xmlns="http://www.w3.org/2000/svg" xmlns:xlink="http://www.w3.org/1999/xlink"><linearGradient id="a"><stop offset="0" stop-color="#fff"/><stop offset=".58055538" stop-color="#fff" stop-opacity=".23529"/><stop offset="1" stop-color="#fff" stop-opacity=".15686"/><stop offset="1" stop-color="#fff" stop-opacity=".39216"/></linearGradient><linearGradient id="b" gradientUnits="userSpaceOnUse" x1="13.608" x2="13.608" y1="2.5455" y2="21.532"><stop offset="0" stop-color="#f7b19e"/><stop offset="1" stop-color="#e2866d"/></linearGradient><linearGradient id="c" gradientUnits="userSpaceOnUse" x1="15.608" x2="15.608" y1="2.5455" y2="21.532"><stop offset="0" stop-color="#cd9ef7"/><stop offset="1" stop-color="#a56de2"/></linearGradient><linearGradient id="d" gradientUnits="userSpaceOnUse" x1="30.535154" x2="30.535154" xlink:href="#c" y1="25.964844" y2="38.464844"/><linearGradient id="e" gradientUnits="userSpaceOnUse" x1="43.000002" x2="44.028597" xlink:href="#b" y1="23.5145" y2="36.134556"/><linearGradient id="f" gradientUnits="userSpaceOnUse" x1="68.121103" x2="68.121103" y1="9.920941" y2="33.659567"><stop offset="0" stop-color="#aff05f"/><stop offset="1" stop-color="#68b723"/></linearGradient><linearGradient id="g" gradientUnits="userSpaceOnUse" x1="33.035154" x2="33.035154" xlink:href="#a" y1="30.964844" y2="38.464844"/><linearGradient id="h" gradientUnits="userSpaceOnUse" x1="38.000002" x2="38.000002" xlink:href="#a" y1="22.5" y2="30.5"/><linearGradient id="i" gradientUnits="userSpaceOnUse" x1="45" x2="45" xlink:href="#a" y1="12" y2="28.514908"/><linearGradient id="j" gradientUnits="userSpaceOnUse" x1="42.5" x2="42.5" y1="49.5" y2="7"><stop offset="0" stop-color="#f6f6f6"/><stop offset=".35294119" stop-color="#fcfcfc"/><stop offset="1" stop-color="#fff" stop-opacity=".915441"/></linearGradient><linearGradient id="k" gradientUnits="userSpaceOnUse" x1="37.5" x2="37" xlink:href="#c" y1="40.514717" y2="34.75"/><linearGradient id="l" gradientUnits="userSpaceOnUse" x1="20.678234" x2="37.008926" xlink:href="#c" y1="32.467941" y2="32.467941"/><linearGradient id="m" gradientUnits="userSpaceOnUse" x1="8.500047" x2="23.499952" xlink:href="#c" y1="32.5" y2="32.5"/><linearGradient id="n" gradientUnits="userSpaceOnUse" x1="41" x2="44" xlink:href="#b" y1="28.25" y2="28.25"/><linearGradient id="o" gradientUnits="userSpaceOnUse" x1="26.5" x2="34" xlink:href="#b" y1="31" y2="22.5"/><path d="m3 3h57v49h-57z" fill="#010101" opacity=".02"/><path d="m3 3h56.5v48.5h-56.5z" fill="#010101" opacity=".05"/><path d="m3 3h56v48h-56z" fill="#010101" opacity=".2"/><path d="m.5.5h57v49h-57z" fill="url(#j)" stroke="#939393" stroke-linecap="round" stroke-linejoin="round" stroke-width=".999"/><path d="m26.5 7.5-20 12.495763v23.504237" fill="none" stroke="#939393" stroke-linecap="round" stroke-linejoin="round"/><path d="m51.5 31.5-16 12h-29l20-12" fill="none" stroke="#939393" stroke-linecap="round" stroke-linejoin="round"/><path d="m1.5 1.5h55v47h-55z" fill="none" stroke="#fff" stroke-linecap="round" stroke-linejoin="round" stroke-width=".999"/><path d="m26.5 7v24.5" fill="none" stroke="#939393"/><path d="m26.5 7.5h25" fill="none" stroke="#939393"/><path d="m51.5 31.5v-24.5" fill="none" stroke="#939393"/><path d="m51.5 31.5h-25" fill="none" stroke="#939393"/><path d="m47 30h-24.5v-16.5l11.697474 6 12.802526-6.5z" fill="url(#f)" stroke="#7bb339" stroke-linecap="round" stroke-linejoin="round" stroke-opacity=".745098"/><path d="m23.5 15v14h22.5v-14.5l-11.720339 6.059322z" fill="none" stroke="url(#i)" stroke-linecap="round" stroke-linejoin="round" stroke-opacity=".745098"/><path d="m41.5 22.5-13.406292 6.039075-11.093708-6.039075v12.5h24.5z" fill="url(#e)" stroke="#b35039" stroke-linecap="round" stroke-linejoin="round" stroke-opacity=".745098"/><path d="m35 40.386942v-9.886942l-14.069177 5.503906-11.930823-5.503906.035154 9.964844z" fill="url(#d)" stroke="#7239b3" stroke-linecap="round" stroke-linejoin="round" stroke-opacity=".746324"/><path d="m27.999958 29.500013-9.999958-5.248956v9.748943h22.5v-10l-12.5 5.5z" fill="none" stroke="url(#h)" stroke-linecap="round" stroke-linejoin="round" stroke-opacity=".745098"/><path d="m20.915198 37-10.915198-5v7.5l24.03516-.077902-.03516-7.422098z" fill="none" stroke="url(#g)" stroke-linecap="round" stroke-linejoin="round" stroke-opacity=".746324"/><g stroke-opacity=".745098"><path d="m35 40.5 1.5-1.5v-10l-1.5 1.5z" fill="url(#k)" stroke="#7239b3" stroke-linecap="round" stroke-linejoin="round"/><path d="m20.930823 36.003906 2.569177-1.503906s13.5-6 13-5.5-1.5 1.5-1.5 1.5z" fill="url(#l)" stroke="#7239b3"/><path d="m9 30.5 2-1.5 12 5.5-2 1.5z" fill="url(#m)" stroke="#7239b3" stroke-linecap="round" stroke-linejoin="round"/><path d="m41.5 35 2-1.5v-12l-2 1.5z" fill="url(#n)" stroke="#b35039" stroke-linecap="round" stroke-linejoin="round"/><path d="m28.093708 28.539075 2-1.5 13.406292-5.539075-2 1.5z" fill="url(#n)" stroke="#b35039" stroke-linecap="round" stroke-linejoin="round"/><path d="m28.093708 28.539075 2-1.5-11.093708-6.039075-2 1.5z" fill="url(#o)" stroke="#b35039" stroke-linecap="round" stroke-linejoin="round"/><path d="m47 30 2.484843-1.84176v-17l-2.484843 1.84176z" fill="url(#f)" stroke="#7bb339" stroke-linecap="round" stroke-linejoin="round"/><path d="m34.197474 19.5 2.484843-1.84176 12.802526-6.5-2.484843 1.84176z" fill="url(#f)" stroke="#7bb339" stroke-linecap="round" stroke-linejoin="round"/><path d="m34.197474 19.5 2.484843-1.84176-11.697474-6-2.484843 1.84176z" fill="url(#f)" stroke="#7bb339" stroke-linecap="round" stroke-linejoin="round"/></g></svg>

<?xml version="1.0" encoding="UTF-8" standalone="no"?>
<svg
   xmlns:dc="http://purl.org/dc/elements/1.1/"
   xmlns:cc="http://creativecommons.org/ns#"
   xmlns:rdf="http://www.w3.org/1999/02/22-rdf-syntax-ns#"
   xmlns:svg="http://www.w3.org/2000/svg"
   xmlns="http://www.w3.org/2000/svg"
   xmlns:xlink="http://www.w3.org/1999/xlink"
   xmlns:sodipodi="http://sodipodi.sourceforge.net/DTD/sodipodi-0.dtd"
   xmlns:inkscape="http://www.inkscape.org/namespaces/inkscape"
   height="52"
   viewBox="0 0 60 52"
   width="60"
   version="1.1"
   id="svg71"
   sodipodi:docname="areaspiled3d_52x60.svg"
   inkscape:version="0.92.3 (unknown)"
   inkscape:export-filename="/home/rizmut/Dokumen/Rizmut/Github/libreoffice-style-elementary/images_elementary/chart2/res/areaspiled3d_52x60.png"
   inkscape:export-xdpi="96"
   inkscape:export-ydpi="96">
  <metadata
     id="metadata77">
    <rdf:RDF>
      <cc:Work
         rdf:about="">
        <dc:format>image/svg+xml</dc:format>
        <dc:type
           rdf:resource="http://purl.org/dc/dcmitype/StillImage" />
        <dc:title></dc:title>
      </cc:Work>
    </rdf:RDF>
  </metadata>
  <defs
     id="defs75">
    <linearGradient
       inkscape:collect="always"
       id="linearGradient1205">
      <stop
         style="stop-color:#f6f6f6;stop-opacity:1;"
         offset="0"
         id="stop1201" />
      <stop
         id="stop2419"
         offset="0.35294119"
         style="stop-color:#fcfcfc;stop-opacity:1" />
      <stop
         style="stop-color:#ffffff;stop-opacity:0.91544116"
         offset="1"
         id="stop1203" />
    </linearGradient>
    <linearGradient
       id="h"
       gradientTransform="matrix(1.3832,0,0,1.4144,-11.892,21.511)"
       gradientUnits="userSpaceOnUse"
       x1="13.697"
       x2="13.3"
       y1="12.091"
       y2="29.436001">
      <stop
         offset="0"
         stop-color="#aff05f"
         id="stop31" />
      <stop
         offset="1"
         stop-color="#68b723"
         id="stop33" />
    </linearGradient>
    <linearGradient
       id="i"
       gradientUnits="userSpaceOnUse"
       x1="12.00126"
       x2="12.00126"
       xlink:href="#a-2"
       y1="8.1875687"
       y2="19.999826" />
    <linearGradient
       id="a-2">
      <stop
         offset="0"
         stop-color="#fff"
         id="stop2-9" />
      <stop
         offset="0.58055538"
         stop-color="#fff"
         stop-opacity=".23529"
         id="stop4-1" />
      <stop
         offset="1"
         stop-color="#fff"
         stop-opacity=".15686"
         id="stop6" />
      <stop
         offset="1"
         stop-color="#fff"
         stop-opacity=".39216"
         id="stop8" />
    </linearGradient>
    <linearGradient
       id="f-2"
       gradientUnits="userSpaceOnUse"
       x1="13.608"
       x2="13.608"
       y1="2.5455"
       y2="21.532">
      <stop
         offset="0"
         stop-color="#f7b19e"
         id="stop25" />
      <stop
         offset="1"
         stop-color="#e2866d"
         id="stop27" />
    </linearGradient>
    <linearGradient
       id="g-7"
       gradientUnits="userSpaceOnUse"
       x1="11.876287"
       x2="12.00126"
       xlink:href="#a-2"
       y1="7.3122978"
       y2="19.999826" />
    <linearGradient
       id="j"
       gradientUnits="userSpaceOnUse"
       x1="15.608"
       x2="15.608"
       y1="2.5455"
       y2="21.532">
      <stop
         offset="0"
         stop-color="#cd9ef7"
         id="stop37" />
      <stop
         offset="1"
         stop-color="#a56de2"
         id="stop39" />
    </linearGradient>
    <linearGradient
       id="k"
       gradientUnits="userSpaceOnUse"
       x1="14.00124"
       x2="14.00124"
       xlink:href="#a-2"
       y1="4.0000048"
       y2="19.999826" />
    <linearGradient
       inkscape:collect="always"
       xlink:href="#j"
       id="linearGradient1115"
       x1="30"
       y1="27"
       x2="30"
       y2="39.5"
       gradientUnits="userSpaceOnUse"
       gradientTransform="translate(0.535154,-1.035156)" />
    <linearGradient
       inkscape:collect="always"
       xlink:href="#f-2"
       id="linearGradient1131"
       x1="35"
       y1="23.0145"
       x2="36.028595"
       y2="35.634556"
       gradientUnits="userSpaceOnUse"
       gradientTransform="translate(8.000002,0.5)" />
    <linearGradient
       inkscape:collect="always"
       xlink:href="#h"
       id="linearGradient1149"
       x1="32.5"
       y1="10.761374"
       x2="32.5"
       y2="34.5"
       gradientUnits="userSpaceOnUse"
       gradientTransform="translate(35.621103,-0.840433)" />
    <linearGradient
       inkscape:collect="always"
       xlink:href="#a-2"
       id="linearGradient1169"
       x1="32.5"
       y1="32"
       x2="32.5"
       y2="39.5"
       gradientUnits="userSpaceOnUse"
       gradientTransform="translate(0.535154,-1.035156)" />
    <linearGradient
       inkscape:collect="always"
       xlink:href="#a-2"
       id="linearGradient1181"
       x1="30"
       y1="22"
       x2="30"
       y2="30"
       gradientUnits="userSpaceOnUse"
       gradientTransform="translate(8.000002,0.5)" />
    <linearGradient
       inkscape:collect="always"
       xlink:href="#a-2"
       id="linearGradient1193"
       x1="9.3788967"
       y1="12.840433"
       x2="9.3788967"
       y2="29.355341"
       gradientUnits="userSpaceOnUse"
       gradientTransform="translate(35.621103,-0.840433)" />
    <linearGradient
       inkscape:collect="always"
       xlink:href="#linearGradient1205"
       id="linearGradient1207"
       x1="42.5"
       y1="49.5"
       x2="42.5"
       y2="7"
       gradientUnits="userSpaceOnUse" />
    <linearGradient
       id="a-3"
       gradientUnits="userSpaceOnUse"
       x1="9.9784946"
       x2="9.9784946"
       y1="13.912886"
       y2="-5.8720589"
       gradientTransform="translate(-85.554475,-30.546764)">
      <stop
         offset="0"
         id="stop1717" />
      <stop
         offset="1"
         stop-color="#333"
         id="stop1719" />
    </linearGradient>
    <linearGradient
       id="b-6"
       gradientUnits="userSpaceOnUse"
       x1="14"
       x2="6"
       y1="8"
       y2="16">
      <stop
         offset="0"
         stop-color="#fff"
         id="stop1722" />
      <stop
         offset=".125"
         stop-color="#fff"
         stop-opacity="0"
         id="stop1724" />
      <stop
         offset="1"
         stop-color="#fff"
         stop-opacity="0"
         id="stop1726" />
    </linearGradient>
    <clipPath
       id="c-0">
      <path
         inkscape:connector-curvature="0"
         d="M 8,2.6855469 V 16.685547 l 3.132812,-3.820313 2.066407,4.986328 a 1.0001,1.0001 0 1 0 1.847656,-0.765624 L 12.935547,11.990234 17.314453,12 Z"
         id="path1729" />
    </clipPath>
    <linearGradient
       inkscape:collect="always"
       xlink:href="#j"
       id="linearGradient941"
       x1="37.5"
       y1="40.514717"
       x2="37"
       y2="34.75"
       gradientUnits="userSpaceOnUse" />
    <linearGradient
       inkscape:collect="always"
       xlink:href="#j"
       id="linearGradient953"
       x1="20.678234"
       y1="32.467941"
       x2="37.008926"
       y2="32.467941"
       gradientUnits="userSpaceOnUse" />
    <linearGradient
       inkscape:collect="always"
       xlink:href="#j"
       id="linearGradient963"
       x1="8.5000467"
       y1="32.5"
       x2="23.499952"
       y2="32.5"
       gradientUnits="userSpaceOnUse" />
    <linearGradient
       inkscape:collect="always"
       xlink:href="#f-2"
       id="linearGradient992"
       x1="41"
       y1="28.25"
       x2="44"
       y2="28.25"
       gradientUnits="userSpaceOnUse" />
    <linearGradient
       inkscape:collect="always"
       xlink:href="#f-2"
       id="linearGradient998"
       gradientUnits="userSpaceOnUse"
       x1="26.5"
       y1="31"
       x2="34"
       y2="22.5" />
  </defs>
  <sodipodi:namedview
     pagecolor="#ffffff"
     bordercolor="#666666"
     borderopacity="1"
     objecttolerance="10"
     gridtolerance="10"
     guidetolerance="10"
     inkscape:pageopacity="0"
     inkscape:pageshadow="2"
     inkscape:window-width="1364"
     inkscape:window-height="704"
     id="namedview73"
     showgrid="true"
     inkscape:zoom="51.346831"
     inkscape:cx="23.873733"
     inkscape:cy="44.003615"
     inkscape:window-x="0"
     inkscape:window-y="0"
     inkscape:window-maximized="0"
     inkscape:current-layer="svg71"
     inkscape:snap-global="true">
    <inkscape:grid
       type="xygrid"
       id="grid895"
       spacingx="0.5"
       spacingy="0.5" />
  </sodipodi:namedview>
  <linearGradient
     id="a"
     gradientUnits="userSpaceOnUse"
     x1="29.525455894189"
     x2="29.525455894189"
     y1="35.604006871864"
     y2="16.823929761292"
     gradientTransform="translate(-60)">
    <stop
       offset="0"
       stop-color="#fbaeff"
       id="stop2" />
    <stop
       offset="1"
       stop-color="#ffd7d7"
       id="stop4" />
  </linearGradient>
  <linearGradient
     id="b"
     gradientUnits="userSpaceOnUse"
     x1="30.27586192"
     x2="30.27586192"
     y1="43.34487536"
     y2="30.9310824"
     gradientTransform="translate(-60)">
    <stop
       offset="0"
       stop-color="#99c2fc"
       id="stop7" />
    <stop
       offset="1"
       stop-color="#dceafe"
       id="stop9" />
  </linearGradient>
  <linearGradient
     id="c"
     gradientUnits="userSpaceOnUse"
     x1="36.4827584"
     x2="46.56896518"
     xlink:href="#d"
     y1="23.1724618"
     y2="40.64228401192"
     gradientTransform="translate(-60)" />
  <linearGradient
     id="d">
    <stop
       offset="0"
       stop-color="#fff"
       id="stop13" />
    <stop
       offset="1"
       stop-color="#fff"
       stop-opacity="0"
       id="stop15" />
  </linearGradient>
  <linearGradient
     id="e"
     gradientUnits="userSpaceOnUse"
     x1="39.859630516151"
     x2="50.44827548"
     xlink:href="#d"
     y1="3.311739960536"
     y2="29.37935828"
     gradientTransform="translate(-60)" />
  <linearGradient
     id="f"
     gradientUnits="userSpaceOnUse"
     x1="16.31034484"
     x2="24.864886637699"
     y1="34.21645904307"
     y2="2.290471955096"
     gradientTransform="translate(-60)">
    <stop
       offset="0"
       stop-color="#b900c4"
       id="stop19" />
    <stop
       offset="1"
       stop-color="#ae4300"
       id="stop21" />
  </linearGradient>
  <linearGradient
     id="g"
     gradientUnits="userSpaceOnUse"
     x1="13.012931085"
     x2="58.283811165318"
     y1="24.72418592"
     y2="12.593890241207"
     gradientTransform="translate(-60)">
    <stop
       offset="0"
       stop-color="#0968ef"
       id="stop24" />
    <stop
       offset="1"
       stop-color="#aecffc"
       id="stop26" />
  </linearGradient>
  <rect
     y="3"
     x="3"
     height="49"
     width="57"
     id="rect2411"
     style="opacity:0.02;vector-effect:none;fill:#010101;fill-opacity:1;stroke:none;stroke-width:0.99900001;stroke-linecap:round;stroke-linejoin:round;stroke-miterlimit:4;stroke-dasharray:none;stroke-dashoffset:0;stroke-opacity:1" />
  <rect
     style="opacity:0.05;vector-effect:none;fill:#010101;fill-opacity:1;stroke:none;stroke-width:0.98952127;stroke-linecap:round;stroke-linejoin:round;stroke-miterlimit:4;stroke-dasharray:none;stroke-dashoffset:0;stroke-opacity:1"
     id="rect2417"
     width="56.5"
     height="48.5"
     x="3"
     y="3" />
  <rect
     style="opacity:0.2;vector-effect:none;fill:#010101;fill-opacity:1;stroke:none;stroke-width:0.98004192;stroke-linecap:round;stroke-linejoin:round;stroke-miterlimit:4;stroke-dasharray:none;stroke-dashoffset:0;stroke-opacity:1"
     id="rect2415"
     width="56"
     height="48"
     x="3"
     y="3" />
  <rect
     style="opacity:1;vector-effect:none;fill:url(#linearGradient1207);fill-opacity:1;stroke:#939393;stroke-width:0.99900001;stroke-linecap:round;stroke-linejoin:round;stroke-miterlimit:4;stroke-dasharray:none;stroke-dashoffset:0;stroke-opacity:1"
     id="rect1199"
     width="57"
     height="49"
     x="0.5"
     y="0.5" />
  <path
     style="fill:none;stroke:#939393;stroke-width:1px;stroke-linecap:round;stroke-linejoin:round;stroke-opacity:1"
     d="M 26.5,7.5 6.5,19.995763 V 43.5"
     id="path897"
     inkscape:connector-curvature="0"
     sodipodi:nodetypes="ccc" />
  <path
     style="fill:none;stroke:#939393;stroke-width:1px;stroke-linecap:round;stroke-linejoin:round;stroke-opacity:1"
     d="m 51.5,31.5 -16,12 h -29 l 20,-12"
     id="path901"
     inkscape:connector-curvature="0"
     sodipodi:nodetypes="cccc" />
  <rect
     y="1.5"
     x="1.5"
     height="47"
     width="55"
     id="rect1209"
     style="opacity:1;vector-effect:none;fill:none;fill-opacity:1;stroke:#ffffff;stroke-width:0.99900001;stroke-linecap:round;stroke-linejoin:round;stroke-miterlimit:4;stroke-dasharray:none;stroke-dashoffset:0;stroke-opacity:1" />
  <path
     style="fill:none;stroke:#939393;stroke-width:1px;stroke-linecap:butt;stroke-linejoin:miter;stroke-opacity:1"
     d="M 26.5,7 V 31.5"
     id="path923"
     inkscape:connector-curvature="0"
     sodipodi:nodetypes="cc" />
  <path
     style="fill:none;stroke:#939393;stroke-width:1px;stroke-linecap:butt;stroke-linejoin:miter;stroke-opacity:1"
     d="m 26.5,7.5 h 25"
     id="path925"
     inkscape:connector-curvature="0"
     sodipodi:nodetypes="cc" />
  <path
     style="fill:none;stroke:#939393;stroke-width:1px;stroke-linecap:butt;stroke-linejoin:miter;stroke-opacity:1"
     d="M 51.5,31.5 V 7"
     id="path927"
     inkscape:connector-curvature="0"
     sodipodi:nodetypes="cc" />
  <path
     style="fill:none;stroke:#939393;stroke-width:1px;stroke-linecap:butt;stroke-linejoin:miter;stroke-opacity:1"
     d="m 51.5,31.5 h -25"
     id="path929"
     inkscape:connector-curvature="0"
     sodipodi:nodetypes="cc" />
  <path
     sodipodi:nodetypes="cccccc"
     inkscape:connector-curvature="0"
     id="path1101"
     d="M 47,30 H 22.5 V 13.5 l 11.697474,6 L 47,13 Z"
     style="fill:url(#linearGradient1149);fill-opacity:1;stroke:#7bb339;stroke-width:1px;stroke-linecap:round;stroke-linejoin:round;stroke-opacity:0.74509804" />
  <path
     style="fill:none;fill-opacity:1;stroke:url(#linearGradient1193);stroke-width:1px;stroke-linecap:round;stroke-linejoin:round;stroke-opacity:0.74509804"
     d="M 23.5,15 V 29 H 46 V 14.5 l -11.720339,6.059322 z"
     id="path1185"
     inkscape:connector-curvature="0"
     sodipodi:nodetypes="cccccc" />
  <path
     style="fill:url(#linearGradient1131);fill-opacity:1;stroke:#b35039;stroke-width:1px;stroke-linecap:round;stroke-linejoin:round;stroke-opacity:0.74509804"
     d="M 41.5,22.5 28.093708,28.539075 17,22.5 V 35 h 24.5 z"
     id="path1099"
     inkscape:connector-curvature="0"
     sodipodi:nodetypes="cccccc" />
  <path
     style="fill:url(#linearGradient1115);fill-opacity:1;stroke:#7239b3;stroke-width:1px;stroke-linecap:round;stroke-linejoin:round;stroke-opacity:0.74632353"
     d="M 35,40.386942 V 30.5 L 20.930823,36.003906 9,30.5 9.035154,40.464844 Z"
     id="path1093"
     inkscape:connector-curvature="0"
     sodipodi:nodetypes="cccccc" />
  <path
     style="fill:none;fill-opacity:1;stroke:url(#linearGradient1181);stroke-width:1px;stroke-linecap:round;stroke-linejoin:round;stroke-opacity:0.74509804"
     d="M 27.999958,29.500013 18,24.251057 V 34 H 40.5 V 24 L 28,29.5 Z"
     id="path1173"
     inkscape:connector-curvature="0"
     sodipodi:nodetypes="ccccccc" />
  <path
     style="fill:none;fill-opacity:1;stroke:url(#linearGradient1169);stroke-width:1px;stroke-linecap:round;stroke-linejoin:round;stroke-opacity:0.74632353"
     d="M 20.915198,37 10,32 v 7.5 L 34.03516,39.422098 34,32 Z"
     id="path1161"
     inkscape:connector-curvature="0"
     sodipodi:nodetypes="cccccc" />
  <path
     style="fill:url(#linearGradient941);stroke:#7239b3;stroke-width:1px;stroke-linecap:round;stroke-linejoin:round;stroke-opacity:0.74509805;fill-opacity:1"
     d="M 35,40.5 36.5,39 V 29 L 35,30.5 Z"
     id="path933"
     inkscape:connector-curvature="0"
     sodipodi:nodetypes="ccccc" />
  <path
     style="fill:url(#linearGradient953);stroke:#7239b3;stroke-width:1px;stroke-linecap:butt;stroke-linejoin:miter;stroke-opacity:0.74509805;fill-opacity:1.0"
     d="M 20.930823,36.003906 23.5,34.5 c 0,0 13.5,-6 13,-5.5 C 36,29.5 35,30.5 35,30.5 Z"
     id="path945"
     inkscape:connector-curvature="0" />
  <path
     style="fill:url(#linearGradient963);stroke:#7239b3;stroke-width:1px;stroke-linecap:round;stroke-linejoin:round;stroke-opacity:0.74509805;fill-opacity:1.0"
     d="M 9,30.5 11,29 23,34.5 21,36 Z"
     id="path955"
     inkscape:connector-curvature="0"
     sodipodi:nodetypes="ccccc" />
  <path
     style="fill:url(#linearGradient992);stroke:#b35039;stroke-width:1px;stroke-linecap:round;stroke-linejoin:round;stroke-opacity:0.74509805;fill-opacity:1.0"
     d="m 41.5,35 2,-1.5 v -12 l -2,1.5 z"
     id="path984"
     inkscape:connector-curvature="0"
     sodipodi:nodetypes="ccccc" />
  <path
     sodipodi:nodetypes="ccccc"
     inkscape:connector-curvature="0"
     id="path994"
     d="m 28.093708,28.539075 2,-1.5 L 43.5,21.5 41.5,23 Z"
     style="fill:url(#linearGradient992);fill-opacity:1;stroke:#b35039;stroke-width:1px;stroke-linecap:round;stroke-linejoin:round;stroke-opacity:0.74509804" />
  <path
     style="fill:url(#linearGradient998);fill-opacity:1;stroke:#b35039;stroke-width:1px;stroke-linecap:round;stroke-linejoin:round;stroke-opacity:0.74509804"
     d="m 28.093708,28.539075 2,-1.5 L 19,21 17,22.5 Z"
     id="path996"
     inkscape:connector-curvature="0"
     sodipodi:nodetypes="ccccc" />
  <path
     style="fill:url(#linearGradient1149);fill-opacity:1;stroke:#7bb339;stroke-width:1px;stroke-linecap:round;stroke-linejoin:round;stroke-opacity:0.74509804"
     d="m 47,30 2.484843,-1.84176 v -17 L 47,13 Z"
     id="path1000"
     inkscape:connector-curvature="0"
     sodipodi:nodetypes="ccccc" />
  <path
     sodipodi:nodetypes="ccccc"
     inkscape:connector-curvature="0"
     id="path1002"
     d="m 34.197474,19.5 2.484843,-1.84176 12.802526,-6.5 L 47,13 Z"
     style="fill:url(#linearGradient1149);fill-opacity:1;stroke:#7bb339;stroke-width:1px;stroke-linecap:round;stroke-linejoin:round;stroke-opacity:0.74509804" />
  <path
     style="fill:url(#linearGradient1149);fill-opacity:1;stroke:#7bb339;stroke-width:1px;stroke-linecap:round;stroke-linejoin:round;stroke-opacity:0.74509804"
     d="m 34.197474,19.5 2.484843,-1.84176 -11.697474,-6 L 22.5,13.5 Z"
     id="path1004"
     inkscape:connector-curvature="0"
     sodipodi:nodetypes="ccccc" />
</svg>
